svgs/elements/checkbox-light.svg

<svg width="16" height="16" viewBox="0 0 16 16" xmlns="http://www.w3.org/2000/svg"><g fill="none"><rect fill="#fff" width="16" height="16" rx="2"/><path d="M1 1.994v12.012c0 .548.446.994.994.994h12.012c.548 0 .994-.446.994-.994v-12.012c0-.548-.446-.994-.994-.994h-12.012c-.548 0-.994.446-.994.994zm-1 0c0-1.101.895-1.994 1.994-1.994h12.012c1.101 0 1.994.895 1.994 1.994v12.012c0 1.101-.895 1.994-1.994 1.994h-12.012c-1.101 0-1.994-.895-1.994-1.994v-12.012z" fill="#EBE9F0"/></g></svg>

<svg width="16" height="16" viewBox="0 0 16 16" xmlns="http://www.w3.org/2000/svg"><g fill="none"><rect fill="#fff" width="16" height="16" rx="2"/><path d="M1 1.994v12.012c0 .548.446.994.994.994h12.012a.995.995 0 0 0 .994-.994V1.994A.995.995 0 0 0 14.006 1H1.994A.995.995 0 0 0 1 1.994zm-1 0C0 .893.895 0 1.994 0h12.012C15.107 0 16 .895 16 1.994v12.012A1.996 1.996 0 0 1 14.006 16H1.994A1.996 1.996 0 0 1 0 14.006V1.994z" fill="#EBE9F0"/></g></svg>
